!!!COA:	Josquin des Prez
!!!CDT:	~1450-1521/08/27
!!!OPR:	Missa Ad fugam
!!!ONM:	1
!!!OTL:	Kyrie
!!!AGN:	Mass; Kyrie
!!!SCT:	NJE 12.1
!!!SCA:	New Josquin Edition 12.1
!!!voices:	4
!!!voices-OPR:	4
**kern	**kern	**kern	**kern
*staff4	*staff3	*staff2	*staff1
*Ivox	*Ivox	*Ivox	*Ivox
*I"Bassus	*I"Tenor	*I"Altus	*I"Superius
*I'B	*I'T	*I'A	*I'S
*>[A,B,C]	*>[A,B,C]	*>[A,B,C]	*>[A,B,C]
*>A	*>A	*>A	*>A
*clefF4	*clefGv2	*clefGv2	*clefG2
*k[b-e-]	*k[b-]	*k[b-]	*k[]
*M3/1	*M3/1	*M3/1	*M3/1
*met(O)	*met(O)	*met(O)	*met(O)
=1-	=1-	=1-	=1-
!	!LO:TX:X=-40:Z=10:t=Canon&colon; Panges laxando trinum in subdyapenthe	!	!LO:TX:X=-40:Z=8:t=[Canon at the lower fifth]
0G	0.r	1.G	0g
.	.	2A/	.
1E-	.	2.B-\	1g
.	.	4c\	.
=2	=2	=2	=2
1.F	0c	0A	2a/
.	.	.	1a
2G\	.	.	4g/
.	.	.	4f/
1A	1c	2r	1e
.	.	2A/	.
=3	=3	=3	=3
2r	2d\	2.B-\	1d
1D	1d	.	.
.	.	4A/	.
.	.	2F/	1r
1G	4c\	2G/	.
.	4B-\	.	.
.	1A	1D	1a
2F#i\	.	.	.
=4	=4	=4	=4
1G	1G	2r	1b-i
.	.	1d	.
2D\	1r	.	2a/
1F	.	2c\	1a
.	1d	2A/	.
2E-\	.	2B-\	2g/
=5	=5	=5	=5
1C	1e-i	3c\V	1g
.	.	3G/	.
.	.	3A/Z	.
0BB-	2d\	0B-	1r
.	1d	.	.
.	.	.	2f/
.	2c\	.	2g/
=6	=6	=6	=6
0F	1c	2.A/	0a
.	.	4B-\	.
.	1r	2c\	.
.	.	2F/	.
1E-	2B-\	1G	1g
.	2c\	.	.
=7	=7	=7	=7
0D	0d	0A	2f/
.	.	.	2.a/
.	.	.	4g/
.	.	.	2f/
1A	1c	2r	1e
.	.	2c\	.
=8	=8	=8	=8
1B-	2B-\	2d\	2d/
.	2.d\	2G/	2.b-i\
1G	.	2.B-\	.
.	4c\	.	4a/
.	2B-\	.	1g
.	.	4c\	.
1D	1A	[1dl	.
.	.	.	2f#i/
=9	=9	=9	=9
0.Gl	0.Gl	0.d]	0.gl
!!LO:LB:i:g=z
=10||	=10||	=10||	=10||
*>B	*>B	*>B	*>B
*clefF4	*clefGv2	*clefGv2	*clefG2
*k[b-e-]	*k[b-]	*k[b-]	*k[b-]
*M2/1	*M2/1	*M2/1	*M2/1
*met(O2)	*met(O2)	*met(O2)	*met(O2)
!!section: Christe
!!!OMD: Christe
!	!	!	!LO:TX:Z=7:t=[Canon at the lower fifth]
1.G	0r	1.d	[0g
2A\	.	2c\	.
=11.	=11.	=11.	=11.
1B-	0r	1d	0g_
1c	.	1e-i	.
=12.	=12.	=12.	=12.
1B-	0r	2d\	0g]
.	.	1d	.
1G	.	.	.
.	.	4c\	.
.	.	4B-\	.
=13	=13	=13	=13
1F	[0c	1A	1a
[1A	.	2.F/	[1cc
.	.	4G/	.
=14.	=14.	=14.	=14.
2A\]	0c_	1.A	2cc\]
2G\	.	.	2b-\
1F	.	.	1a
.	.	[2c\	.
=15.	=15.	=15.	=15.
0E-	0c]	2c\]	0g
.	.	2B-\	.
.	.	1G	.
=16	=16	=16	=16
1D	1d	1A	0f
1BB-	[1f	1B-	.
=17.	=17.	=17.	=17.
1.D	2f\]	1F	0r
.	2e-i\	.	.
.	1d	[1B-	.
2E-\	.	.	.
=18.	=18.	=18.	=18.
0F	0c	1B-]	0r
.	.	1A	.
=19	=19	=19	=19
0BB-	0B-	2.B-\	0f
.	.	4c\	.
.	.	1d	.
=20.	=20.	=20.	=20.
0r	0r	1e-i	1g
.	.	2f\	1d
.	.	[2d\	.
=21.	=21.	=21.	=21.
0r	0r	2d\]	0e-i
.	.	2c\	.
.	.	2c\	.
.	.	2B-\	.
=22	=22	=22	=22
1r	0B-	1.d	0d
1G	.	.	.
.	.	4c\	.
.	.	4B-\	.
=23.	=23.	=23.	=23.
1F	1c	1A	0r
1E-	1G	2B-\	.
.	.	[2G/	.
=24.	=24.	=24.	=24.
0D	0A	2G/]	0r
.	.	2F#i/	.
.	.	2F#i/	.
.	.	2E/	.
=25	=25	=25	=25
0B-	0G	0G	1r
.	.	.	1g
=26.	=26.	=26.	=26.
0A	0r	1r	1e
.	.	1c	1f
=27.	=27.	=27.	=27.
0G	0r	1.d	1g
.	.	.	1b-
.	.	2e\	.
=28	=28	=28	=28
1.F	1r	1f	0a
.	1c	1f	.
2E-\	.	.	.
=29.	=29.	=29.	=29.
1F	1A	1r	0r
1G	1B-	1d	.
=30.	=30.	=30.	=30.
0C	1c	1e	0r
.	1e-i	1g	.
=31	=31	=31	=31
0r	0d	1.f	1.a
.	.	4e\	2g/
.	.	4d\	.
=32.	=32.	=32.	=32.
0r	0r	2c\	1a
.	.	1d	.
.	.	.	2b-\
.	.	4c\	[2a/
.	.	4B-\	.
=33.	=33.	=33.	=33.
0r	0r	2A/	2a/]
.	.	1d	4g/
.	.	.	4f/
.	.	.	1e
.	.	2c#i\	.
=34	=34	=34	=34
1.D	1.d	2d\	1d
.	.	4c\	.
.	.	4B-\	.
.	.	2A/	1r
2E-\	2c\	2G/	.
=35.	=35.	=35.	=35.
1F	1d	1A	0r
1G	2e-i\	1B-	.
.	[2d\	.	.
=36.	=36.	=36.	=36.
0D	2d\]	1A	1r
.	4c\	.	.
.	4B-\	.	.
.	1A	[1d	1f
=37	=37	=37	=37
1.G	1G	2d\]	2.g/
.	.	2G/	.
.	.	.	4a/
.	1r	2.d\	2b-\
2D\	.	.	[2a/
.	.	4c\	.
=38.	=38.	=38.	=38.
2F\	0r	2A/	2a/]
2G\	.	1d	4g/
.	.	.	4f/
1A	.	.	1e
.	.	2c#i\	.
=39.	=39.	=39.	=39.
1B-	1r	1d	2d/
.	.	.	4e/
.	.	.	4f/
1G	1B-	2r	2g/
.	.	2d\	[2b-\
=40	=40	=40	=40
2r	2.c\	2c\	4b-\]
.	.	.	4a/
1A	.	2A/	2.cc\
.	4d\	.	.
.	2e-i\	2c\	.
.	.	.	4b-\
2B-\	[2d\	2G/	[2b-\
=41.	=41.	=41.	=41.
1G	2d\]	2.B-\	2b-\]
.	4c\	.	4a/
.	4B-\	4c\	4g/
1D	1A	[1d	2.f#i/
.	.	.	4e/
=42.	=42.	=42.	=42.
[0Gl	[0Gl	2d\]	[0gl
.	.	2.e-i\	.
.	.	4B-\	.
.	.	2c\	.
=43	=43	=43	=43
0G]	0G]	0dl	0g]
!!LO:LB:i:g=z
=44||	=44||	=44||	=44||
*>C	*>C	*>C	*>C
*clefF4	*clefGv2	*clefGv2	*clefG2
*k[b-e-]	*k[b-]	*k[b-]	*k[]
*M3/1	*M3/1	*M3/1	*M3/1
*met(O|)	*met(O|)	*met(O|)	*met(O|)
!!section: Kyrie II
!!!OMD: Kyrie II
!	!	!	!LO:TX:Z=7:t=[Canon at the lower fifth]
0B-	0.r	0G	0d
1A	.	1c	2e/
.	.	.	2f/
=45	=45	=45	=45
1.G	0G	1.d	0g
2E-\	.	2g\	.
2F\	2A/	2f\	1r
2G\	2B-\	2d\	.
=46	=46	=46	=46
0C	0c	2e\	0g
.	.	2.g\	.
.	.	4c\	.
.	.	2e\	.
2F\	1r	1d	2a/
2G\	.	.	2b\
=47	=47	=47	=47
0A	0c	1c	0cc
.	.	1r	.
1G	2d\	1r	1b
.	2e\	.	.
=48	=48	=48	=48
0F	0f	0c	2a/
.	.	.	1cc
.	.	.	4b\
.	.	.	4a/
1C	1e	1c	1g
=49	=49	=49	=49
2D\	2d\	2A/	2f/
2BB-/	1f	2.d\	2d/
2.D\	.	.	2.f/
.	.	4c\	.
.	4e\	2B-\	.
4E-\	4d\	.	4g/
1F	1c	1A	1a
=50	=50	=50	=50
0G	2B-\	2r	1d
.	2G/	2B-\	.
.	2.B-\	2G/	1r
.	.	2B-\	.
.	4c\	.	.
1D	1d	1A	1f
=51	=51	=51	=51
2r	1G	1B-	2.g/
1.G	.	.	.
.	.	.	4a/
.	1r	0G	0b-i
2E-\	1B-	.	.
2G\	.	.	.
=52	=52	=52	=52
1F	2.c\	0.r	2a/
.	.	.	4g/
.	4d\	.	4f/
1c	0e-	.	4g/
.	.	.	4f/
.	.	.	4e/
.	.	.	4d/
1A	.	.	1c
=53	=53	=53	=53
1B-	2d\	2G/	1d
.	4c\	2d\	.
.	4B-\	.	.
0A	4c\	2e\	1r
.	4B-\	.	.
.	4A/	2.f\	.
.	4G/	.	.
.	1F#i	.	1a
.	.	4e\	.
.	.	4d\	.
.	.	4c\	.
=54	=54	=54	=54
2.G\	1G	2B-\	1b-i
.	.	2G/	.
4E-\	.	.	.
2G\	1r	2B-\	2g/
2F\	.	2A/	1a
1D	1d	1F	.
.	.	.	2f/
=55	=55	=55	=55
*k[b-]	*	*	*
1C	1e-i	0.r	1g
1F	2c\	.	1a
.	1d	.	.
1G	.	.	1d
.	2B-\	.	.
=56	=56	=56	=56
1A	1c	1e	2r
.	.	.	1a
2r	1d	1f	.
2D\	.	.	2f/
2E\	1G	2e\	2g/
2G\	.	2d\	2b-i\
=57	=57	=57	=57
2F\	2r	1.f	1.a
2D\	1d	.	.
2F\	.	.	.
2G\	2B-\	2d\	1.g
1C	2c\	4e\	.
.	.	4d\	.
.	2e-i\	4c\	.
.	.	4B-\	.
=58	=58	=58	=58
1D	1.d	2A/	2f/
.	.	2f\	2d/
1r	.	2d\	2f/
.	1.c	2e\	2g/
1A	.	2.c\	1e
.	.	4B-\	.
=59	=59	=59	=59
1B-	2B-\	4G/	2d/
.	.	4A/	.
.	2G/	4B-\	2.b-i\
.	.	4c\	.
1G	2B-\	[0dl	.
.	.	.	4a/
.	2c\	.	1g
1D	1A	.	.
.	.	.	2f#i/
=60	=60	=60	=60
0.Gl	0.Gl	0.d]	0.gl
==	==	==	==
*-	*-	*-	*-
!!!RDF**kern: l=long note in original notation
!!!RDF**kern: i=editorial accidental
!!!RDF**kern: V=start of tuplet marker
!!!RDF**kern: Z=end of tuplet marker
!!!ENC:	Jesse Rodin; Victoria Chang 2012/02/11
!!!END:	2012/02/11/
!!!EED:	Jesse Rodin
!!!EEV:	2012/06/29/
!!attribution-level@Jos: 4 (questionable)
!!!ONB:	Translated from MusicXML and edited on 2012/06/29/ by Craig Sapp
!!muse2ps: T^@{OPR}^u^@{ONM}{. }@{OTL}^C^@{COA}?\n@{SCT}^i2I150v85,85,85,150c120
